svg/icon/bpt.svg

<svg height="32" viewBox="0 0 32 32" width="32" xmlns="http://www.w3.org/2000/svg" xmlns:xlink="http://www.w3.org/1999/xlink"><defs><linearGradient id="a" x1="50%" x2="50%" y1="0%" y2="100%"><stop offset="0" stop-color="#fff" stop-opacity=".5"/><stop offset="1" stop-opacity=".5"/></linearGradient><circle id="b" cx="16" cy="15" r="15"/><filter id="c" height="111.7%" width="111.7%" x="-5.8%" y="-4.2%"><feOffset dy=".5" in="SourceAlpha" result="shadowOffsetOuter1"/><feGaussianBlur in="shadowOffsetOuter1" result="shadowBlurOuter1" stdDeviation=".5"/><feComposite in="shadowBlurOuter1" in2="SourceAlpha" operator="out" result="shadowBlurOuter1"/><feColorMatrix in="shadowBlurOuter1" values="0 0 0 0 0   0 0 0 0 0   0 0 0 0 0  0 0 0 0.199473505 0"/></filter><path id="d" d="m25.8836586 19.737424c-.0963286.1985526-.2024867.3931735-.3165084.5799309-.0766698.1376107-.1513736.2752214-.2319751.4069345-.037352.0609419-.0668403.1238497-.1041923.1828257h-.0117953c-1.568627 2.4925151-4.0793587 4.243979-6.9602472 4.855406-2.8808886.6114269-5.8865958.0307474-8.3324178-1.6097589-.04914728-.0334198-.09239687-.0707712-.14154415-.104191-.18872552-.1199179-.36958748-.2535969-.54848355-.3931735-.11598756-.088464-.23000923-.1788939-.34009911-.2712897-.15923716-.133679-.33813323-.2988118-.46001847-.4128321-.12188523-.1140203-.23197512-.2182113-.35582624-.3459927-.12385113-.1277814-.23197512-.2496652-.35779214-.3931735-.12581701-.1435083-.27522472-.3165046-.36958748-.4364225-.09436276-.119918-.18479374-.2418017-.27325883-.3656514-.12188523-.1690646-.24180458-.340095-.35386035-.5150572-.07273797-.1140204-.14154415-.2300065-.21035033-.3479586-.11008988-.1828256-.21821388-.3794124-.31847432-.5759991-.05897672-.1159862-.11402167-.2339383-.16906661-.3518903-.09239687-.1985526-.18282785-.4069346-.26342938-.6035213-.04914727-.1258155-.09436276-.2535969-.13957825-.3813783-.06880618-.2005185-.13761236-.4089004-.19658908-.6054871-.03931782-.1415425-.0648744-.2771873-.108124-.4226615-.04914727-.1965868-.09632865-.3931735-.13368058-.5897603-.01965891-.1494059-.05307905-.3086411-.06684029-.4501836-.02752247-.1965867-.05504494-.3931735-.07273796-.5897602-.01376124-.1553036-.03145425-.3106071-.03145425-.4659106-.01572713-.1965867-.01572713-.3931735-.01572713-.5897602 0-.1513718.01179535-.3007777.01179535-.4521495.00982945-.2103478.02359069-.4187298.04521548-.6290776.01376124-.1376107.03145426-.2732556.05111317-.4108663.03145425-.2254195.07011677-.4508389.11598756-.6762584.02490128-.1192626.05176846-.2385252.08060152-.3577879.05635554-.2411464.12188524-.4816375.19658909-.7214733.03276485-.1035357.06684029-.2070714.10222632-.3106071.08518861-.2463887.18020667-.4908115.28505418-.7332685.02359069-.0550443.05111316-.1218838.0648744-.1670987.01376123-.045215.04128371-.0923958.07863563-.1317132.10419222-.222143.21821389-.44232012.33813323-.6605314.05701083-.12188378.12581701-.2418017.19658909-.35975374.05111316-.08649817.0845333-.16709873.1494077-.26146037.0648744-.09436163.13957825-.192655.20641854-.29094838.08846509-.13957658.17889607-.26735796.27325883-.39317348.12581702-.1690646.2575317-.33419746.39317817-.49539859.09829455-.11402031.1946232-.22607475.29488363-.33616333.14940771-.1625117.30274719-.3197811.46001846-.47180818.09829455-.09239577.1946232-.18479153.29488363-.27325557.17561959-.15464823.35451565-.30208829.53668821-.44232017.09698395-.07601354.19527849-.1507165.29488363-.22410888.18741493-.13105783.37876164-.26211566.57404008-.39317349.1041923-.06880536.2083845-.13367898.3145426-.19658674.1965891-.11402031.3931782-.22410888.5897672-.32633399.1199194-.06290776.2418046-.12188378.3656557-.17889393.1887256-.08649817.3735193-.17103047.5701084-.2476993.1454759-.05897602.269327-.10615684.4423254-.16709873s.3459968-.11795204.5209611-.17103047c.1749643-.05307842.3774511-.10615684.5307905-.14350832.1533395-.03735148.306679-.07077122.4600185-.1022251.2024868-.04128322.4167689-.07470296.613358-.10419098.1336805-.01965867.2673611-.03735148.4030076-.05111255.2221457-.02359041.4462572-.03931735.6723347-.04914668.1218852-.00982934.2457363-.00982934.3695874-.00982934.2319752-.00262116.4646056.00262116.6978913.01572694.1218852.0058976.2457364.01572694.3676216.02555627.222801.01965868.4456019.04652553.6684029.08060057.1297488.01965867.2614635.04128321.3931782.06683949.2149374.04062793.4298748.08846404.6448122.14350832.14351.03735148.28702.07666883.4305301.11991792.2103503.05897602.4069394.12384964.6035284.19658674.1474419.05307842.2948837.11008857.4403596.17103046.1100899.04521495.2221457.08060057.3322356.12974725v.01572694c2.6998068 1.18229761 4.8054146 3.40796823 5.8363157 6.16910551 1.0309011 2.7611374.8991304 5.822138-.3652415 8.4844702-.0196589.0412832-.0432496.0766689-.0629085.1179521zm-14.0561196 4.4998705v-.0019659c4.6448588 2.0809169 10.1126847.3984643 12.7841882-3.9337007.072738-.1199179.1395783-.2437675.2083845-.3656513.0943627-.1808598.2005208-.3538562.2909518-.5504429 1.2218873-2.5130866 1.346492-5.4204421.3441041-8.0288553-1.0023879-2.60841329-3.0419371-4.68412531-5.6323505-5.73221662-.1277829-.05504429-.2594976-.10615684-.3931782-.15530353-.1874149-.06683949-.3754851-.12843667-.5642107-.18479154-.1336805-.03931735-.2634293-.07470296-.3931781-.1081227-.2005209-.05111256-.4010418-.09567222-.6015626-.13367899-.1192641-.02227983-.2385281-.04259379-.3577922-.06094189-.2110056-.03276446-.4226665-.05832073-.6349827-.07666883l-.3361674-.02359041c-.216248-.01048462-.4318407-.01572694-.6467781-.01572694h-.3381332c-.2083844.00917405-.4161135.0242457-.6231874.04521495-.1245064.01441636-.2483575.0301433-.3715534.04718082-.1900361.02621157-.3787616.05832074-.5661765.09632751-.1415442.02883272-.282433.0602866-.4226666.09436163-.1638242.03931735-.3269931.08322172-.4895068.13171312-.1625136.04849139-.3230614.10091453-.4816432.15726939-.1402336.0484914-.2758801.09960395-.4069395.15333766-.1769301.07208181-.3525497.14875063-.5268587.23000649-.1127111.05242313-.2241116.10681213-.3342014.16316699-.1847938.09567222-.3669663.19658675-.5465177.30274359-.096984.05635486-.1933126.11533088-.288986.17692806-.1808619.11270974-.3584474.23459352-.53275639.36565134-.09043098.06159718-.17955136.1271261-.26736115.19658675-.16775602.1323684-.33158026.26997912-.49147272.41283215-.09043098.07994528-.17889607.16185642-.26539526.24573343-.14678652.14809535-.29095185.29815656-.43249599.45018364-.08912039.09305106-.17758548.1933103-.26539527.30077771-.12712761.15071651-.25032344.30536474-.36958748.46394471-.08453331.11402032-.16710073.23000649-.24770225.34795854-.11598756.1690646-.22804334.34009506-.33420145.51702313-.0648744.10812271-.12385112.21624541-.18479374.32436814-.11991934.2024843-.21821388.4069345-.31650843.6192482-.0432496.0904299-.08256741.1808598-.12188523.2732556-.09698395.22673-.18544904.4560812-.26539527.6880536-.03145425.0917405-.06159791.1834809-.09043098.2752214-.07601444.2241089-.14154414.4495284-.19658908.6762584-.02555658.104191-.04914727.2103478-.07077207.3165047-.0432496.2103478-.07863564.4226615-.108124.6349751-.01572713.1218838-.03342014.2457335-.04521549.3676173-.01965891.1965867-.04128371.3931734-.04128371.5897602-.01179534.133679-.01179534.2693238-.01179534.4049687 0 .1867574.01572712.3735148.01572712.5602722.00786357.1395766.01572713.2791532.02948837.4187297.01769301.1847916.04128371.3676172.06880618.5504429.02555658.1356449.04718138.2634263.07273796.4089004.03538603.1847916.07863563.3695831.12385112.5543747.03145426.1258155.06290851.251631.10026044.3794124.05504494.1906891.11795345.3774465.18479374.5642039.04128371.1140203.08060152.2300065.12581701.3440268.07470386.1887233.15727127.371549.23394102.5661698.05111316.1081227.10026043.2162454.15530537.3224023.09829455.1788939.19265731.355822.29488363.5307842.06684029.1081227.1297488.2142795.19658909.3204364.10222632.1612011.2142821.3184705.32633788.4757399.08256742.1140203.14351003.2083819.25163403.3381292.108124.1297472.23000923.2712897.33616734.3931735s.22411156.2535969.33026966.3636854c.10615811.1100886.18872553.1887233.32633789.3184706.13761236.1297472.27719061.2594945.42463242.3833441.10026044.0845323.20445265.1670987.30864487.2476993.16513483.1297473.33420146.2555628.50916576.3754807.4968047.3417538 1.0231319.6384672 1.5727127.8866062zm4.1519615-.8256643c-3.4049186.0023851-6.475967-2.0466185-7.78099318-5.1914789s-.58699936-6.7661832 1.81923598-9.1752015c2.4062354-2.40901832 6.0267603-3.13126512 9.1731801-1.829928s5.1990329 4.3699539 5.200624 7.7748324c-.0032432 4.6460383-3.7659602 8.4131071-8.4120469 8.421776zm0-14.07757661c-2.2900683-.00238573-4.3558947 1.37547571-5.2335521 3.49066571-.87765745 2.11519-.3941648 4.5508171 1.2248773 6.1704029 1.6190422 1.6195858 4.0545301 2.1039194 6.1700504 1.2270078 2.1155202-.8769116 3.4941161-2.9422343 3.4925265-5.2322758-.0032433-3.1221381-2.5317319-5.65323408-5.6539021-5.65973234z"/><filter id="e" height="115.9%" width="115.9%" x="-8%" y="-5.7%"><feOffset dy=".5" in="SourceAlpha" result="shadowOffsetOuter1"/><feGaussianBlur in="shadowOffsetOuter1" result="shadowBlurOuter1" stdDeviation=".5"/><feColorMatrix in="shadowBlurOuter1" values="0 0 0 0 0   0 0 0 0 0   0 0 0 0 0  0 0 0 0.204257246 0"/></filter></defs><g fill="none"><use fill="#000" filter="url(#c)" xlink:href="#b"/><use fill="#0f63d8" fill-rule="evenodd" xlink:href="#b"/><use fill="url(#a)" fill-rule="evenodd" xlink:href="#b"/><circle cx="16" cy="15" r="14.5" stroke="#000" stroke-opacity=".097"/><use fill="#000" filter="url(#e)" xlink:href="#d"/><use fill="#fff" fill-rule="evenodd" xlink:href="#d"/></g></svg>

<svg xmlns="http://www.w3.org/2000/svg" xmlns:xlink="http://www.w3.org/1999/xlink" width="32" height="32" viewBox="0 0 32 32">
  <defs>
    <linearGradient id="bpt-c" x1="50%" x2="50%" y1="0%" y2="100%">
      <stop offset="0%" stop-color="#FFF" stop-opacity=".5"/>
      <stop offset="100%" stop-opacity=".5"/>
    </linearGradient>
    <circle id="bpt-b" cx="16" cy="15" r="15"/>
    <filter id="bpt-a" width="111.7%" height="111.7%" x="-5.8%" y="-4.2%" filterUnits="objectBoundingBox">
      <feOffset dy=".5" in="SourceAlpha" result="shadowOffsetOuter1"/>
      <feGaussianBlur in="shadowOffsetOuter1" result="shadowBlurOuter1" stdDeviation=".5"/>
      <feComposite in="shadowBlurOuter1" in2="SourceAlpha" operator="out" result="shadowBlurOuter1"/>
      <feColorMatrix in="shadowBlurOuter1" values="0 0 0 0 0   0 0 0 0 0   0 0 0 0 0  0 0 0 0.199473505 0"/>
    </filter>
    <path id="bpt-e" d="M25.8836586,19.737424 C25.78733,19.9359766 25.6811719,20.1305975 25.5671502,20.3173549 C25.4904804,20.4549656 25.4157766,20.5925763 25.3351751,20.7242894 C25.2978231,20.7852313 25.2683348,20.8481391 25.2309828,20.9071151 L25.2191875,20.9071151 C23.6505605,23.3996302 21.1398288,25.1510941 18.2589403,25.7625211 C15.3780517,26.373948 12.3723445,25.7932685 9.9265225,24.1527622 C9.87737522,24.1193424 9.83412563,24.081991 9.78497835,24.0485712 C9.59625283,23.9286533 9.41539087,23.7949743 9.2364948,23.6553977 C9.12050724,23.5669337 9.00648557,23.4765038 8.89639569,23.384108 C8.73715853,23.250429 8.55826246,23.0852962 8.43637722,22.9712759 C8.31449199,22.8572556 8.2044021,22.7530646 8.08055098,22.6252832 C7.95669985,22.4975018 7.84857586,22.375618 7.72275884,22.2321097 C7.59694183,22.0886014 7.44753412,21.9156051 7.35317136,21.7956872 C7.2588086,21.6757692 7.16837762,21.5538855 7.07991253,21.4300358 C6.9580273,21.2609712 6.83810795,21.0899408 6.72605218,20.9149786 C6.65331421,20.8009582 6.58450803,20.6849721 6.51570185,20.56702 C6.40561197,20.3841944 6.29748797,20.1876076 6.19722753,19.9910209 C6.13825081,19.8750347 6.08320586,19.7570826 6.02816092,19.6391306 C5.93576405,19.440578 5.84533307,19.232196 5.76473154,19.0356093 C5.71558427,18.9097938 5.67036878,18.7820124 5.62515329,18.654231 C5.55634711,18.4537125 5.48754093,18.2453306 5.42856421,18.0487439 C5.38924639,17.9072014 5.36368981,17.7715566 5.32044021,17.6260824 C5.27129294,17.4294956 5.22411156,17.2329089 5.18675963,17.0363221 C5.16710072,16.8869162 5.13368058,16.727681 5.11991934,16.5861385 C5.09239687,16.3895518 5.0648744,16.192965 5.04718138,15.9963783 C5.03342014,15.8410747 5.01572713,15.6857712 5.01572713,15.5304677 C5,15.333881 5,15.1372942 5,14.9407075 C5,14.7893357 5.01179535,14.6399298 5.01179535,14.488558 C5.0216248,14.2782102 5.03538604,14.0698282 5.05701083,13.8594804 C5.07077207,13.7218697 5.08846509,13.5862248 5.108124,13.4486141 C5.13957825,13.2231946 5.17824077,12.9977752 5.22411156,12.7723557 C5.24901284,12.6530931 5.27588002,12.5338305 5.30471308,12.4145678 C5.36106862,12.1734214 5.42659832,11.9329303 5.50130217,11.6930945 C5.53406702,11.5895588 5.56814246,11.4860231 5.60352849,11.3824874 C5.6887171,11.1360987 5.78373516,10.8916759 5.88858267,10.6492189 C5.91217336,10.5941746 5.93969583,10.5273351 5.95345707,10.4821202 C5.9672183,10.4369052 5.99474078,10.3897244 6.0320927,10.350407 C6.13628492,10.128264 6.25030659,9.90808688 6.37022593,9.6898756 C6.42723676,9.56799182 6.49604294,9.4480739 6.56681502,9.33012186 C6.61792818,9.24362369 6.65134832,9.16302313 6.71622272,9.06866149 C6.78109712,8.97429986 6.85580097,8.87600649 6.92264126,8.77771311 C7.01110635,8.63813653 7.10153733,8.51035515 7.19590009,8.38453963 C7.32171711,8.21547503 7.45343179,8.05034217 7.58907826,7.88914104 C7.68737281,7.77512073 7.78370146,7.66306629 7.88396189,7.55297771 C8.0333696,7.39046601 8.18670908,7.23319661 8.34398035,7.08116953 C8.4422749,6.98877376 8.53860355,6.896378 8.63886398,6.80791396 C8.81448357,6.65326573 8.99337963,6.50582567 9.17555219,6.36559379 C9.27253614,6.28958025 9.37083068,6.21487729 9.47043582,6.14148491 C9.65785075,6.01042708 9.84919746,5.87936925 10.0444759,5.74831142 C10.1486682,5.67950606 10.2528604,5.61463244 10.3590185,5.55172468 C10.5556076,5.43770437 10.7521967,5.3276158 10.9487857,5.22539069 C11.0687051,5.16248293 11.1905903,5.10350691 11.3144414,5.04649676 C11.503167,4.95999859 11.6879607,4.87546629 11.8845498,4.79879746 C12.0300257,4.73982144 12.1538768,4.69264062 12.3268752,4.63169873 C12.4998736,4.57075684 12.672872,4.51374669 12.8478363,4.46066826 C13.0228006,4.40758984 13.2252874,4.35451142 13.3786268,4.31715994 C13.5319663,4.27980846 13.6853058,4.24638872 13.8386453,4.21493484 C14.0411321,4.17365162 14.2554142,4.14023188 14.4520033,4.11074386 C14.5856838,4.09108519 14.7193644,4.07339238 14.8550109,4.05963131 C15.0771566,4.0360409 15.3012681,4.02031396 15.5273456,4.01048463 C15.6492308,4.00065529 15.7730819,4.00065529 15.896933,4.00065529 C16.1289082,3.99803413 16.3615386,4.00327645 16.5948243,4.01638223 C16.7167095,4.02227983 16.8405607,4.03210917 16.9624459,4.0419385 C17.1852469,4.06159718 17.4080478,4.08846403 17.6308488,4.12253907 C17.7605976,4.14219774 17.8923123,4.16382228 18.024027,4.18937856 C18.2389644,4.23000649 18.4539018,4.2778426 18.6688392,4.33288688 C18.8123492,4.37023836 18.9558592,4.40955571 19.0993693,4.4528048 C19.3097196,4.51178082 19.5063087,4.57665444 19.7028977,4.64939154 C19.8503396,4.70246996 19.9977814,4.75948011 20.1432573,4.820422 C20.2533472,4.86563695 20.365403,4.90102257 20.4754929,4.95016925 L20.4754929,4.96589619 C23.1752997,6.1481938 25.2809075,8.37386442 26.3118086,11.1350017 C27.3427097,13.8961391 27.210939,16.9571397 25.9465671,19.6194719 C25.9269082,19.6607551 25.9033175,19.6961408 25.8836586,19.737424 Z M11.827539,24.2372945 L11.827539,24.2353286 C16.4723978,26.3162455 21.9402237,24.6337929 24.6117272,20.3016279 C24.6844652,20.18171 24.7513055,20.0578604 24.8201117,19.9359766 C24.9144744,19.7551168 25.0206325,19.5821204 25.1110635,19.3855337 C26.3329508,16.8724471 26.4575555,13.9650916 25.4551676,11.3566784 C24.4527797,8.74826511 22.4132305,6.67255309 19.8228171,5.62446178 C19.6950342,5.56941749 19.5633195,5.51830494 19.4296389,5.46915825 C19.242224,5.40231876 19.0541538,5.34072158 18.8654282,5.28436671 C18.7317477,5.24504936 18.6019989,5.20966375 18.4722501,5.17624401 C18.2717292,5.12513145 18.0712083,5.08057179 17.8706875,5.04256502 C17.7514234,5.02028519 17.6321594,4.99997123 17.5128953,4.98162313 C17.3018897,4.94885867 17.0902288,4.9233024 16.8779126,4.9049543 L16.5417452,4.88136389 C16.3254972,4.87087927 16.1099045,4.86563695 15.8949671,4.86563695 L15.5568339,4.86563695 C15.3484495,4.874811 15.1407204,4.88988265 14.9336465,4.9108519 C14.8091401,4.92526826 14.685289,4.9409952 14.5620931,4.95803272 C14.372057,4.98424429 14.1833315,5.01635346 13.9959166,5.05436023 C13.8543724,5.08319295 13.7134836,5.11464683 13.57325,5.14872186 C13.4094258,5.18803921 13.2462569,5.23194358 13.0837432,5.28043498 C12.9212296,5.32892637 12.7606818,5.38134951 12.6021,5.43770437 C12.4618664,5.48619577 12.3262199,5.53730832 12.1951605,5.59104203 C12.0182304,5.66312384 11.8426108,5.73979266 11.6683018,5.82104852 C11.5555907,5.87347165 11.4441902,5.92786065 11.3341004,5.98421551 C11.1493066,6.07988773 10.9671341,6.18080226 10.7875827,6.2869591 C10.6905987,6.34331396 10.5942701,6.40228998 10.4985967,6.46388716 C10.3177348,6.5765969 10.1401493,6.69848068 9.96584031,6.8295385 C9.87540933,6.89113568 9.78628895,6.9566646 9.69847916,7.02612525 C9.53072314,7.15849365 9.3668989,7.29610437 9.20700644,7.4389574 C9.11657546,7.51890268 9.02811037,7.60081382 8.94161118,7.68469083 C8.79482466,7.83278618 8.65065933,7.98284739 8.50911519,8.13487447 C8.4199948,8.22792553 8.33152971,8.32818477 8.24371992,8.43565218 C8.11659231,8.58636869 7.99339648,8.74101692 7.87413244,8.89959689 C7.78959913,9.01361721 7.70703171,9.12960338 7.62643019,9.24755543 C7.51044263,9.41662003 7.39838685,9.58765049 7.29222874,9.76457856 C7.22735434,9.87270127 7.16837762,9.98082397 7.107435,10.0889467 C6.98751566,10.291431 6.88922112,10.4958812 6.79092657,10.7081949 C6.74767697,10.7986248 6.70835916,10.8890547 6.66904134,10.9814505 C6.57205739,11.2081805 6.4835923,11.4375317 6.40364607,11.6695041 C6.37219182,11.7612446 6.34204816,11.852985 6.31321509,11.9447255 C6.23720065,12.1688344 6.17167095,12.3942539 6.11662601,12.6209839 C6.09106943,12.7251749 6.06747874,12.8313317 6.04585394,12.9374886 C6.00260434,13.1478364 5.9672183,13.3601501 5.93772994,13.5724637 C5.92200281,13.6943475 5.9043098,13.8181972 5.89251445,13.940081 C5.87285554,14.1366677 5.85123074,14.3332544 5.85123074,14.5298412 C5.8394354,14.6635202 5.8394354,14.799165 5.8394354,14.9348099 C5.8394354,15.1215673 5.85516252,15.3083247 5.85516252,15.4950821 C5.86302609,15.6346587 5.87088965,15.7742353 5.88465089,15.9138118 C5.9023439,16.0986034 5.9259346,16.281429 5.95345707,16.4642547 C5.97901365,16.5998996 6.00063845,16.727681 6.02619503,16.8731551 C6.06158106,17.0579467 6.10483066,17.2427382 6.15004615,17.4275298 C6.18150041,17.5533453 6.21295466,17.6791608 6.25030659,17.8069422 C6.30535153,17.9976313 6.36826004,18.1843887 6.43510033,18.3711461 C6.47638404,18.4851664 6.51570185,18.6011526 6.56091734,18.7151729 C6.6356212,18.9038962 6.71818861,19.0867219 6.79485836,19.2813427 C6.84597152,19.3894654 6.89511879,19.4975881 6.95016373,19.603745 C7.04845828,19.7826389 7.14282104,19.959567 7.24504736,20.1345292 C7.31188765,20.2426519 7.37479616,20.3488087 7.44163645,20.4549656 C7.54386277,20.6161667 7.65591855,20.7734361 7.76797433,20.9307055 C7.85054175,21.0447258 7.91148436,21.1390874 8.01960836,21.2688347 C8.12773236,21.3985819 8.24961759,21.5401244 8.3557757,21.6620082 C8.46193381,21.783892 8.57988726,21.9156051 8.68604536,22.0256936 C8.79220347,22.1357822 8.87477089,22.2144169 9.01238325,22.3441642 C9.14999561,22.4739114 9.28957386,22.6036587 9.43701567,22.7275083 C9.53727611,22.8120406 9.64146832,22.894607 9.74566054,22.9752076 C9.91079537,23.1049549 10.079862,23.2307704 10.2548263,23.3506883 C10.751631,23.6924421 11.2779582,23.9891555 11.827539,24.2372945 Z M15.9795005,23.4116302 C12.5745819,23.4140153 9.5035335,21.3650117 8.19850732,18.2201513 C6.89348114,15.0752909 7.61150796,11.4539681 10.0177433,9.0449498 C12.4239787,6.63593148 16.0445036,5.91368468 19.1909234,7.2150218 C22.3373432,8.51635892 24.3899563,11.5849757 24.3915474,14.9898542 C24.3883042,19.6358925 20.6255872,23.4029613 15.9795005,23.4116302 Z M15.9795005,9.33405359 C13.6894322,9.33166786 11.6236058,10.7095293 10.7459484,12.8247193 C9.86829095,14.9399093 10.3517836,17.3755364 11.9708257,18.9951222 C13.5898679,20.614708 16.0253558,21.0990416 18.1408761,20.22213 C20.2563963,19.3452184 21.6349922,17.2798957 21.6334026,14.9898542 C21.6301593,11.8677161 19.1016707,9.33662012 15.9795005,9.33012186 L15.9795005,9.33405359 Z"/>
    <filter id="bpt-d" width="115.9%" height="115.9%" x="-8%" y="-5.7%" filterUnits="objectBoundingBox">
      <feOffset dy=".5" in="SourceAlpha" result="shadowOffsetOuter1"/>
      <feGaussianBlur in="shadowOffsetOuter1" result="shadowBlurOuter1" stdDeviation=".5"/>
      <feColorMatrix in="shadowBlurOuter1" values="0 0 0 0 0   0 0 0 0 0   0 0 0 0 0  0 0 0 0.204257246 0"/>
    </filter>
  </defs>
  <g fill="none" fill-rule="evenodd">
    <g fill-rule="nonzero">
      <use fill="#000" filter="url(#bpt-a)" xlink:href="#bpt-b"/>
      <use fill="#0F63D8" fill-rule="evenodd" xlink:href="#bpt-b"/>
      <use fill="url(#bpt-c)" fill-rule="evenodd" style="mix-blend-mode:soft-light" xlink:href="#bpt-b"/>
      <circle cx="16" cy="15" r="14.5" stroke="#000" stroke-opacity=".097"/>
    </g>
    <g fill-rule="nonzero">
      <use fill="#000" filter="url(#bpt-d)" xlink:href="#bpt-e"/>
      <use fill="#FFF" fill-rule="evenodd" xlink:href="#bpt-e"/>
    </g>
  </g>
</svg>
